X:127
T:St. James's Beauties. JJo8.127
%%VWML:JohnsonVol8-2184-p64-0
F:http://www.vwml.org/record/JohnsonVol8/2184/p64
Z:Transcribed by Simon Furey and Lewis Jones
Z:vmp.Simon Wilson 2013 www.village-music-project.org.uk
Z:Dance added by John Chambers 2017
M:C|
L:1/8
%Q:1/2=100
K:G
|: gf |\
g2d2 e2gf | g2d2 e2gf |\
g2fe dcBA | B2G2 G2gf |\
g2d2 b2ag | f2d2 a2ag |\
fgaf efge | f2d2 d2 :|
d^c |\
d2A2 =c2BA | B2G2 G2e^d |\
e2B2 =d2^cB | c2A2 A2a^g |\
a2e2 g2fe | f2^c2 d2cB |\
A2d2 AGFE | F2D2 D2gf |
g2d2 e2gf | g2d2 e2f2 |\
g2fe dcBA | B2G2 G2BA |\
B2G2 A2Bc | B2G2 A2Bc |\
B2g2 ABcA | B2G2 G2 |]
W: First Man turn Right hands single with the 2d Wo.
W:and Left with his Partner .| 1st Wo. the same with the 2d
W:Man :| cross over two Cu. load to the top and cast
W:off Hey top and Bottom |. 1st Cu change Places and hey
W:again top and Bottom Right and Left at top :|:
W:
T:Bacon Flitch. JJo8.128, The
B:J.Johnson Choice Collection Vol 8 1758
Z:vmp.Simon Wilson 2013 www.village-music-project.org.uk
Z:Dance added by John Chambers 2017
T:Trip to Dunmow. JJo8.128
M:2/4
L:1/8
%Q:1/4=100
K:D
|: a/g/ |\
fddf | eAAG | FdEc | dD Da/g/ |\
fddf | ea^gb | afed | cAA :|
|: d |\
dAB=c | BGGe | eBcd | cAAG |\
Fafd | Egec | dBAG | FDD :|
W: Hey contrary Sides .| the same
W:on your own :| lead down and up,
W:cast off and Right and Left.
W:
